images/icons/untappd.svg

<svg fill="none" height="24" viewBox="0 0 24 24" width="24" xmlns="http://www.w3.org/2000/svg"><g clip-rule="evenodd" fill-rule="evenodd"><path d="m10.9606 13.4174-5.66929 8.126c-.37795.378-.94488.567-1.32283.567-.56693-.189-1.51181-.378-2.26772-.9449l-1.511811-1.7008c-.18897611-.5669-.18897609-1.1339.188977-1.5118l5.669294-8.12601 1.13386-.94488 1.13385-.56693.56693-.56693 4.72444-4.91339v-.18897h.1889l.189-.18898v-.18898l.189-.18897.9449.37795.7559.75591-.189.18897-.189.18898v.18897l-.1889.18898h-.189c-1.0632 2.30239-2.1976 4.5712-3.4016 6.80318l-.189 1.3228c0 .378-.1889.9449-.5669 1.3228z" fill="#c3712a"/><path d="m23.811 17.9529-5.8583-8.12601-1.1338-.94488-1.1339-.56693-.5669-.56693c-.2505-.19088-.5025-.37986-.7559-.56693-.6021 1.27358-1.2321 2.53373-1.8898 3.77948v1.1339c0 .378.189.9449.567 1.3228l5.8582 8.126c.189.378.7559.567 1.1339.567.7559-.189 1.5118-.378 2.2677-.9449l1.5118-1.7008zm-15.49606-14.55121.18898.18898h.18897v.37795h.18898c.31186.56865.62683 1.13558.94488 1.70079.49925-.57108 1.00325-1.13803 1.51185-1.70079l-.9449-1.13386v-.18897h-.189v-.18898h-.189v-.37795l-1.13383.37795-.56693.75591z" fill="#83481f"/></g></svg>

<svg width="24" height="24" viewBox="0 0 24 24" fill="none" xmlns="http://www.w3.org/2000/svg">
<path fill-rule="evenodd" clip-rule="evenodd" d="M10.9606 13.4174L5.29131 21.5434C4.91336 21.9214 4.34643 22.1104 3.96848 22.1104C3.40155 21.9214 2.45667 21.7324 1.70076 21.1655L0.188949 19.4647C-2.71127e-05 18.8978 -2.70903e-05 18.3308 0.377926 17.9529L6.04722 9.82689L7.18108 8.88201L8.31493 8.31508L8.88186 7.74815L13.6063 2.83476V2.64579H13.7952L13.9842 2.45681V2.26783L14.1732 2.07886L15.1181 2.45681L15.874 3.21272L15.685 3.40169L15.496 3.59067V3.77964L15.3071 3.96862H15.1181C14.0549 6.27101 12.9205 8.53982 11.7165 10.7718L11.5275 12.0946C11.5275 12.4726 11.3386 13.0395 10.9606 13.4174Z" fill="#C3712A"/>
<path fill-rule="evenodd" clip-rule="evenodd" d="M23.811 17.9529L17.9527 9.82689L16.8189 8.88201L15.685 8.31508L15.1181 7.74815C14.8676 7.55727 14.6156 7.36829 14.3622 7.18122C13.7601 8.4548 13.1301 9.71495 12.4724 10.9607V12.0946C12.4724 12.4726 12.6614 13.0395 13.0394 13.4174L18.8976 21.5434C19.0866 21.9214 19.6535 22.1104 20.0315 22.1104C20.7874 21.9214 21.5433 21.7324 22.2992 21.1655L23.811 19.4647V17.9529ZM8.31494 3.40169L8.50392 3.59067H8.69289V3.96862H8.88187C9.19373 4.53727 9.5087 5.1042 9.82675 5.66941C10.326 5.09833 10.83 4.53138 11.3386 3.96862L10.3937 2.83476V2.64579H10.2047V2.45681H10.0157V2.07886L8.88187 2.45681L8.31494 3.21272V3.40169Z" fill="#83481F"/>
</svg>
